digital/Imbassy-X-Files/65ef0811cc67439994568a45/662031a2f6205a81b001d75a_11ll.svg

<svg fill="none" height="152" viewBox="0 0 152 152" width="152" xmlns="http://www.w3.org/2000/svg" xmlns:xlink="http://www.w3.org/1999/xlink"><linearGradient id="a" gradientUnits="userSpaceOnUse" x1="0" x2="180.39" y1="0" y2="101.589"><stop offset="0" stop-color="#141f49" stop-opacity=".54"/><stop offset="1" stop-color="#0e142c" stop-opacity=".23"/></linearGradient><mask id="b" fill="#fff"><path d="m0 9.12c0-5.03684 4.08316-9.12 9.12-9.12h133.76c5.037 0 9.12 4.08316 9.12 9.12v133.76c0 5.037-4.083 9.12-9.12 9.12h-133.76c-5.03684 0-9.12-4.083-9.12-9.12z" fill="#fff"/><path d="m86.4134 24.5251c8.0995 8.975 14.2876 18.6869 17.9556 29.7602 6.359 19.1941 7.912 38.9008 5.211 58.9387-.523 3.871-1.26 7.726-1.581 11.612-.229 2.809-1.948 2.611-3.897 2.659-2.371.064-2.216-1.473-2.194-3.038.347-21.335-4.9658-41.1483-16.1886-59.3013-2.6109-4.2179-5.6915-8.1528-8.6494-12.1518-1.1105-1.5003-1.3989-2.8351-.63-4.6504 3.1073-7.3626 6.0545-14.7893 9.0765-22.1893.1922-.4699.4805-.897.8969-1.6552z" fill="#fff"/><path d="m51.3867 24.4886c6.156 6.9409 11.2282 14.0686 14.8107 22.1413 8.9163 20.1018 10.9772 41.1967 8.7615 62.8571-.5126 5.035-1.5003 10.022-1.8954 15.062-.2403 3.081-2.0182 2.995-4.1805 2.953-2.4347-.054-2.0075-1.805-1.9862-3.247.3204-22.403-5.5687-43.0116-17.8807-61.7358-2.2424-3.4117-4.8853-6.5565-7.1224-9.9682-.6246-.9503-.9663-2.6161-.5766-3.6252 3.0273-7.8699 6.2681-15.6597 9.4556-23.4655.1014-.2402.283-.4538.614-.9717z" fill="#fff"/></mask><path d="m0 9.12c0-5.03684 4.08316-9.12 9.12-9.12h133.76c5.037 0 9.12 4.08316 9.12 9.12v133.76c0 5.037-4.083 9.12-9.12 9.12h-133.76c-5.03684 0-9.12-4.083-9.12-9.12z" fill="url(#a)"/><path d="m86.4134 24.5251c8.0995 8.975 14.2876 18.6869 17.9556 29.7602 6.359 19.1941 7.912 38.9008 5.211 58.9387-.523 3.871-1.26 7.726-1.581 11.612-.229 2.809-1.948 2.611-3.897 2.659-2.371.064-2.216-1.473-2.194-3.038.347-21.335-4.9658-41.1483-16.1886-59.3013-2.6109-4.2179-5.6915-8.1528-8.6494-12.1518-1.1105-1.5003-1.3989-2.8351-.63-4.6504 3.1073-7.3626 6.0545-14.7893 9.0765-22.1893.1922-.4699.4805-.897.8969-1.6552z" fill="#f9fafb"/><path d="m51.3867 24.4886c6.156 6.9409 11.2282 14.0686 14.8107 22.1413 8.9163 20.1018 10.9772 41.1967 8.7615 62.8571-.5126 5.035-1.5003 10.022-1.8954 15.062-.2403 3.081-2.0182 2.995-4.1805 2.953-2.4347-.054-2.0075-1.805-1.9862-3.247.3204-22.403-5.5687-43.0116-17.8807-61.7358-2.2424-3.4117-4.8853-6.5565-7.1224-9.9682-.6246-.9503-.9663-2.6161-.5766-3.6252 3.0273-7.8699 6.2681-15.6597 9.4556-23.4655.1014-.2402.283-.4538.614-.9717z" fill="#f9fafb"/><path d="m86.4134 24.5251h-1v.3845l.2577.2854zm17.9556 29.7602-.949.3144v.0001zm5.211 58.9387.991.134v-.001zm-1.581 11.612-.996-.082v.001zm-3.897 2.659-.025-.999h-.002zm-2.194-3.038-1-.016v.003zm-16.1886-59.3013.8505-.5258-.0003-.0005zm-8.6494-12.1518.804-.5947-.0002-.0003zm-.63-4.6504.9208.39.0005-.0011zm9.0765-22.1893-.9256-.3787-.0002.0006zm.8969-1.6552h1l-1.8764-.4814zm-35.0267-.0204.7481-.6635-.878-.99-.7127 1.115zm14.8107 22.1413.9141-.4054-.0001-.0002zm8.7615 62.8571-.9948-.101h-.0001zm-1.8954 15.062-.9969-.078h-.0001zm-4.1805 2.953-.0219.999h.0021zm-1.9862-3.247.9999.015zm-17.8807-61.7358-.8356.5492.0001.0002zm-7.1224-9.9682.8363-.5483-.0006-.001zm-.5766-3.6252.9328.3603.0005-.0013zm9.4556-23.4655-.9213-.389-.0045.011zm-41.6527-24.4603h133.76v-2h-133.76zm141.88 8.12v133.76h2v-133.76zm-8.12 141.88h-133.76v2h133.76zm-141.88-8.12v-133.76h-2v133.76zm8.12 8.12c-4.48455 0-8.12-3.635-8.12-8.12h-2c0 5.589 4.53088 10.12 10.12 10.12zm141.88-8.12c0 4.485-3.635 8.12-8.12 8.12v2c5.589 0 10.12-4.531 10.12-10.12zm-8.12-141.88c4.485 0 8.12 3.63545 8.12 8.12h2c0-5.58912-4.531-10.12-10.12-10.12zm-133.76-2c-5.58912 0-10.12 4.53088-10.12 10.12h2c0-4.48455 3.63545-8.12 8.12-8.12zm76.5511 26.195c8.0276 8.8955 14.133 18.4899 17.7489 29.4047l1.898-.6289c-3.72-11.2317-9.9909-21.0611-18.1622-30.1157zm17.7489 29.4048c6.308 19.0407 7.851 38.5934 5.169 58.4902l1.982.267c2.72-20.1781 1.157-40.0387-5.253-59.3862zm5.169 58.4902c-.513 3.793-1.263 7.748-1.586 11.664l1.993.165c.318-3.858 1.041-7.613 1.575-11.561zm-1.586 11.665c-.05.608-.174.96-.295 1.164-.11.185-.24.29-.414.366-.199.087-.472.143-.866.172-.407.03-.818.025-1.351.039l.05 1.999c.442-.011.976-.009 1.447-.043.483-.036 1.019-.115 1.523-.335.528-.232.992-.607 1.331-1.177.326-.55.503-1.226.568-2.022zm-2.928 1.741c-.496.013-.751-.062-.871-.122-.094-.048-.141-.1-.183-.194-.055-.123-.097-.318-.114-.633-.018-.319-.005-.653 0-1.076l-1.999-.027c-.005.359-.02.803.002 1.211.022.412.084.89.284 1.339.214.478.571.896 1.114 1.168.517.258 1.132.352 1.821.333zm-1.168-2.022c.351-21.522-5.0112-41.5245-16.3371-59.8441l-1.7011 1.0517c11.1198 17.9863 16.3832 37.6104 16.0392 58.7594zm-16.3374-59.8446c-2.6394-4.2641-5.7602-8.2515-8.6956-12.2202l-1.608 1.1894c2.9803 4.0293 6.0208 7.9117 8.6031 12.0834zm-8.6958-12.2205c-.4982-.6729-.7534-1.231-.8351-1.7637-.0803-.5231-.0085-1.1212.3221-1.9017l-1.8416-.78c-.4383 1.0349-.6067 2.0118-.4574 2.985.1478.9635.592 1.823 1.2044 2.6504zm-.5125-3.6665c3.1102-7.3694 6.0642-14.8129 9.081-22.2002l-1.8516-.7561c-3.0271 7.4127-5.9675 14.8227-9.072 22.1786zm9.0807-22.1996c.1644-.4019.3741-.6896.8479-1.5523l-1.7529-.9629c-.3591.6536-.7261 1.2202-.9461 1.7579zm-1.0286-2.0338v.0161h2v-.0161zm-34.7748.6432c6.112 6.8913 11.1166 13.9331 14.6448 21.8834l1.828-.8113c-3.6368-8.1952-8.7766-15.4088-14.9766-22.3992zm14.6447 21.8832c8.8301 19.9074 10.8832 40.8198 8.6808 62.3506l1.9896.203c2.2291-21.7911.1604-43.0684-8.8422-63.3645zm8.6807 62.3506c-.2536 2.492-.6249 4.972-.9867 7.488-.3604 2.506-.7104 5.041-.9107 7.597l1.9938.156c.1948-2.484.5362-4.963.8966-7.468.359-2.497.7379-5.027.9967-7.57zm-1.8975 15.085c-.1048 1.344-.504 1.679-.8061 1.824-.2116.102-.5027.169-.9175.199-.4184.03-.8822.019-1.4402.008l-.0395 1.999c.5232.011 1.0925.026 1.6232-.012.5342-.039 1.1081-.135 1.6412-.391 1.1875-.572 1.7974-1.735 1.9329-3.471zm-3.1616 2.031c-.4991-.011-.7273-.108-.8215-.169-.0708-.045-.1194-.102-.1599-.232-.0494-.158-.0724-.387-.0678-.724.0022-.164.0102-.334.0193-.522.0088-.183.0188-.385.0217-.585l-1.9998-.029c-.0023.16-.0104.328-.0196.517-.0088.184-.0187.388-.0214.592-.0054.397.013.881.1584 1.347.1543.495.4542.976.9873 1.319.5098.327 1.1413.47 1.8595.485zm-1.0082-2.232c.3232-22.6-5.621-43.4057-18.045-62.3003l-1.6711 1.0989c12.2 18.5539 18.0339 38.9664 17.7163 61.1724zm-18.0449-62.3001c-1.1401-1.7345-2.3793-3.3971-3.5968-5.0321-1.2235-1.6429-2.4255-3.2584-3.525-4.9351l-1.6725 1.0967c1.1376 1.7349 2.3756 3.3977 3.5934 5.033 1.2238 1.6432 2.4272 3.2588 3.5296 4.936zm-7.1224-9.9682c-.2227-.3388-.4228-.8575-.5191-1.4123-.0986-.5681-.0645-1.0336.0396-1.3033l-1.8656-.7206c-.2856.7393-.2755 1.6113-.1446 2.3659.1333.768.4164 1.5573.8184 2.1689zm-.479-2.7169c3.0225-7.8573 6.2572-15.6323 9.4481-23.4464l-1.8516-.7561c-3.184 7.7975-6.431 15.6021-9.4631 23.4844zm9.4435-23.4355c.0104-.0244.0333-.0694.13-.2134.0876-.1306.232-.3374.4054-.6087l-1.6852-1.0771c-.1576.2466-.2696.4054-.3808.5712-.1022.1523-.2207.3342-.3119.5501z" fill="#fff" fill-opacity=".24" mask="url(#b)"/></svg>

<svg width="152" height="152" viewBox="0 0 152 152" fill="none" xmlns="http://www.w3.org/2000/svg">
<mask id="path-1-inside-1_229_435" fill="white">
<path d="M0 9.12C0 4.08316 4.08316 0 9.12 0H142.88C147.917 0 152 4.08316 152 9.12V142.88C152 147.917 147.917 152 142.88 152H9.12C4.08316 152 0 147.917 0 142.88V9.12Z"/>
<path d="M86.4134 24.5251C94.5129 33.5001 100.701 43.212 104.369 54.2853C110.728 73.4794 112.281 93.1861 109.58 113.224C109.057 117.095 108.32 120.95 107.999 124.836C107.77 127.645 106.051 127.447 104.102 127.495C101.731 127.559 101.886 126.022 101.908 124.457C102.255 103.122 96.9422 83.3087 85.7194 65.1557C83.1085 60.9378 80.0279 57.0029 77.07 53.0039C75.9595 51.5036 75.6711 50.1688 76.44 48.3535C79.5473 40.9909 82.4945 33.5642 85.5165 26.1642C85.7087 25.6943 85.997 25.2672 86.4134 24.509V24.5251Z"/>
<path d="M51.3867 24.4886C57.5427 31.4295 62.6149 38.5572 66.1974 46.6299C75.1137 66.7317 77.1746 87.8266 74.9589 109.487C74.4463 114.522 73.4586 119.509 73.0635 124.549C72.8232 127.63 71.0453 127.544 68.883 127.502C66.4483 127.448 66.8755 125.697 66.8968 124.255C67.2172 101.852 61.3281 81.2434 49.0161 62.5192C46.7737 59.1075 44.1308 55.9627 41.8937 52.551C41.2691 51.6007 40.9274 49.9349 41.3171 48.9258C44.3444 41.0559 47.5852 33.2661 50.7727 25.4603C50.8741 25.2201 51.0557 25.0065 51.3867 24.4886Z"/>
</mask>
<path d="M0 9.12C0 4.08316 4.08316 0 9.12 0H142.88C147.917 0 152 4.08316 152 9.12V142.88C152 147.917 147.917 152 142.88 152H9.12C4.08316 152 0 147.917 0 142.88V9.12Z" fill="url(#paint0_linear_229_435)"/>
<path d="M86.4134 24.5251C94.5129 33.5001 100.701 43.212 104.369 54.2853C110.728 73.4794 112.281 93.1861 109.58 113.224C109.057 117.095 108.32 120.95 107.999 124.836C107.77 127.645 106.051 127.447 104.102 127.495C101.731 127.559 101.886 126.022 101.908 124.457C102.255 103.122 96.9422 83.3087 85.7194 65.1557C83.1085 60.9378 80.0279 57.0029 77.07 53.0039C75.9595 51.5036 75.6711 50.1688 76.44 48.3535C79.5473 40.9909 82.4945 33.5642 85.5165 26.1642C85.7087 25.6943 85.997 25.2672 86.4134 24.509V24.5251Z" fill="#F9FAFB"/>
<path d="M51.3867 24.4886C57.5427 31.4295 62.6149 38.5572 66.1974 46.6299C75.1137 66.7317 77.1746 87.8266 74.9589 109.487C74.4463 114.522 73.4586 119.509 73.0635 124.549C72.8232 127.63 71.0453 127.544 68.883 127.502C66.4483 127.448 66.8755 125.697 66.8968 124.255C67.2172 101.852 61.3281 81.2434 49.0161 62.5192C46.7737 59.1075 44.1308 55.9627 41.8937 52.551C41.2691 51.6007 40.9274 49.9349 41.3171 48.9258C44.3444 41.0559 47.5852 33.2661 50.7727 25.4603C50.8741 25.2201 51.0557 25.0065 51.3867 24.4886Z" fill="#F9FAFB"/>
<path d="M86.4134 24.5251H85.4134V24.9096L85.6711 25.195L86.4134 24.5251ZM104.369 54.2853L103.42 54.5997L103.42 54.5998L104.369 54.2853ZM109.58 113.224L110.571 113.358L110.571 113.357L109.58 113.224ZM107.999 124.836L107.003 124.754L107.003 124.755L107.999 124.836ZM104.102 127.495L104.077 126.496L104.075 126.496L104.102 127.495ZM101.908 124.457L100.908 124.441L100.908 124.444L101.908 124.457ZM85.7194 65.1557L86.5699 64.6299L86.5696 64.6294L85.7194 65.1557ZM77.07 53.0039L77.874 52.4092L77.8738 52.4089L77.07 53.0039ZM76.44 48.3535L77.3608 48.7435L77.3613 48.7424L76.44 48.3535ZM85.5165 26.1642L84.5909 25.7855L84.5907 25.7861L85.5165 26.1642ZM86.4134 24.509H87.4134L85.537 24.0276L86.4134 24.509ZM51.3867 24.4886L52.1348 23.8251L51.2568 22.8351L50.5441 23.9501L51.3867 24.4886ZM66.1974 46.6299L67.1115 46.2245L67.1114 46.2243L66.1974 46.6299ZM74.9589 109.487L73.9641 109.386L73.964 109.386L74.9589 109.487ZM73.0635 124.549L72.0666 124.471L72.0665 124.471L73.0635 124.549ZM68.883 127.502L68.8611 128.501L68.8632 128.501L68.883 127.502ZM66.8968 124.255L67.8967 124.27L67.8967 124.27L66.8968 124.255ZM49.0161 62.5192L48.1805 63.0684L48.1806 63.0686L49.0161 62.5192ZM41.8937 52.551L42.73 52.0027L42.7294 52.0017L41.8937 52.551ZM41.3171 48.9258L42.2499 49.2861L42.2504 49.2848L41.3171 48.9258ZM50.7727 25.4603L49.8514 25.0713L49.8469 25.0823L50.7727 25.4603ZM9.12 1H142.88V-1H9.12V1ZM151 9.12V142.88H153V9.12H151ZM142.88 151H9.12V153H142.88V151ZM1 142.88V9.12H-1V142.88H1ZM9.12 151C4.63545 151 1 147.365 1 142.88H-1C-1 148.469 3.53088 153 9.12 153V151ZM151 142.88C151 147.365 147.365 151 142.88 151V153C148.469 153 153 148.469 153 142.88H151ZM142.88 1C147.365 1 151 4.63545 151 9.12H153C153 3.53088 148.469 -1 142.88 -1V1ZM9.12 -1C3.53088 -1 -1 3.53088 -1 9.12H1C1 4.63545 4.63545 1 9.12 1V-1ZM85.6711 25.195C93.6987 34.0905 99.8041 43.6849 103.42 54.5997L105.318 53.9708C101.598 42.7391 95.3271 32.9097 87.1558 23.8551L85.6711 25.195ZM103.42 54.5998C109.728 73.6405 111.271 93.1932 108.589 113.09L110.571 113.357C113.291 93.1789 111.728 73.3183 105.318 53.9708L103.42 54.5998ZM108.589 113.09C108.076 116.883 107.326 120.838 107.003 124.754L108.996 124.919C109.314 121.061 110.037 117.306 110.571 113.358L108.589 113.09ZM107.003 124.755C106.953 125.363 106.829 125.715 106.708 125.919C106.598 126.104 106.468 126.209 106.294 126.285C106.095 126.372 105.822 126.428 105.428 126.457C105.021 126.487 104.61 126.482 104.077 126.496L104.127 128.495C104.569 128.484 105.103 128.486 105.574 128.452C106.057 128.416 106.593 128.337 107.097 128.117C107.625 127.885 108.089 127.51 108.428 126.94C108.754 126.39 108.931 125.714 108.996 124.918L107.003 124.755ZM104.075 126.496C103.579 126.509 103.324 126.434 103.204 126.374C103.11 126.326 103.063 126.274 103.021 126.18C102.966 126.057 102.924 125.862 102.907 125.547C102.889 125.228 102.902 124.894 102.907 124.471L100.908 124.444C100.903 124.803 100.888 125.247 100.91 125.655C100.932 126.067 100.994 126.545 101.194 126.994C101.408 127.472 101.765 127.89 102.308 128.162C102.825 128.42 103.44 128.514 104.129 128.495L104.075 126.496ZM102.907 124.474C103.258 102.952 97.8958 82.9495 86.5699 64.6299L84.8688 65.6816C95.9886 83.6679 101.252 103.292 100.908 124.441L102.907 124.474ZM86.5696 64.6294C83.9302 60.3653 80.8094 56.3779 77.874 52.4092L76.266 53.5986C79.2463 57.6279 82.2868 61.5103 84.8691 65.682L86.5696 64.6294ZM77.8738 52.4089C77.3756 51.736 77.1204 51.1779 77.0387 50.6452C76.9584 50.1221 77.0302 49.524 77.3608 48.7435L75.5192 47.9635C75.0809 48.9984 74.9125 49.9753 75.0618 50.9485C75.2096 51.912 75.6538 52.7715 76.2662 53.5989L77.8738 52.4089ZM77.3613 48.7424C80.4715 41.373 83.4255 33.9295 86.4423 26.5422L84.5907 25.7861C81.5636 33.1988 78.6232 40.6088 75.5187 47.9647L77.3613 48.7424ZM86.442 26.5428C86.6064 26.1409 86.8161 25.8532 87.2899 24.9905L85.537 24.0276C85.1779 24.6812 84.8109 25.2478 84.5909 25.7855L86.442 26.5428ZM85.4134 24.509V24.5251H87.4134V24.509H85.4134ZM50.6386 25.1522C56.7506 32.0435 61.7552 39.0853 65.2834 47.0356L67.1114 46.2243C63.4746 38.0291 58.3348 30.8155 52.1348 23.8251L50.6386 25.1522ZM65.2833 47.0354C74.1134 66.9428 76.1665 87.8552 73.9641 109.386L75.9537 109.589C78.1828 87.7979 76.1141 66.5206 67.1115 46.2245L65.2833 47.0354ZM73.964 109.386C73.7104 111.878 73.3391 114.358 72.9773 116.874C72.6169 119.38 72.2669 121.915 72.0666 124.471L74.0604 124.627C74.2552 122.143 74.5966 119.664 74.957 117.159C75.316 114.662 75.6949 112.132 75.9537 109.589L73.964 109.386ZM72.0665 124.471C71.9617 125.815 71.5625 126.15 71.2604 126.295C71.0488 126.397 70.7577 126.464 70.3429 126.494C69.9245 126.524 69.4607 126.513 68.9027 126.502L68.8632 128.501C69.3864 128.512 69.9557 128.527 70.4864 128.489C71.0206 128.45 71.5945 128.354 72.1276 128.098C73.3151 127.526 73.925 126.363 74.0605 124.627L72.0665 124.471ZM68.9049 126.502C68.4058 126.491 68.1776 126.394 68.0834 126.333C68.0126 126.288 67.964 126.231 67.9235 126.101C67.8741 125.943 67.8511 125.714 67.8557 125.377C67.8579 125.213 67.8659 125.043 67.875 124.855C67.8838 124.672 67.8938 124.47 67.8967 124.27L65.8969 124.241C65.8946 124.401 65.8865 124.569 65.8773 124.758C65.8685 124.942 65.8586 125.146 65.8559 125.35C65.8505 125.747 65.8689 126.231 66.0143 126.697C66.1686 127.192 66.4685 127.673 67.0016 128.016C67.5114 128.343 68.1429 128.486 68.8611 128.501L68.9049 126.502ZM67.8967 124.27C68.2199 101.67 62.2757 80.8643 49.8517 61.9697L48.1806 63.0686C60.3806 81.6225 66.2145 102.035 65.8969 124.241L67.8967 124.27ZM49.8518 61.9699C48.7117 60.2354 47.4725 58.5728 46.255 56.9378C45.0315 55.2949 43.8295 53.6794 42.73 52.0027L41.0575 53.0994C42.1951 54.8343 43.4331 56.4971 44.6509 58.1324C45.8747 59.7756 47.0781 61.3912 48.1805 63.0684L49.8518 61.9699ZM42.7294 52.0017C42.5067 51.6629 42.3066 51.1442 42.2103 50.5894C42.1117 50.0213 42.1458 49.5558 42.2499 49.2861L40.3843 48.5655C40.0987 49.3048 40.1088 50.1768 40.2397 50.9314C40.373 51.6994 40.6561 52.4887 41.0581 53.1003L42.7294 52.0017ZM42.2504 49.2848C45.2729 41.4275 48.5076 33.6525 51.6985 25.8384L49.8469 25.0823C46.6629 32.8798 43.4159 40.6844 40.3838 48.5667L42.2504 49.2848ZM51.6939 25.8493C51.7043 25.8249 51.7272 25.7799 51.8239 25.6359C51.9115 25.5053 52.0559 25.2985 52.2293 25.0272L50.5441 23.9501C50.3865 24.1967 50.2745 24.3555 50.1633 24.5213C50.0611 24.6736 49.9426 24.8555 49.8514 25.0714L51.6939 25.8493Z" fill="white" fill-opacity="0.24" mask="url(#path-1-inside-1_229_435)"/>
<defs>
<linearGradient id="paint0_linear_229_435" x1="0" y1="0" x2="180.39" y2="101.589" gradientUnits="userSpaceOnUse">
<stop stop-color="#141F49" stop-opacity="0.54"/>
<stop offset="1" stop-color="#0E142C" stop-opacity="0.23"/>
</linearGradient>
</defs>
</svg>
